X:1
T:Title
%%score { 1 | 2 }
L:1/8
M:3/4
K:C
V:1 treble nm="Grand Piano"
V:2 bass 
V:1
 z2 z2[Q:1/4=110] [EG]2 | [Ec]2 [Ec]2 [Ec]2 | [Ec]2 B2 c2 | d2 c2 A2 | [EG]4 [EG]2 | A2 A2 A2 | %6
 F2 G2 A2 | [EG]2 [EG]2 E2 | D4 D2 | E2 E2 [DF]2 | [EG]2 [EG]2 E2 | A2 A2 A2 | [Ec]4 d2 | %13
 e2 d2 [Gc]2 | A2 c2 A2 | G2 c2 B2 |[M:2/4] [Ec]4 |[M:1/4] [Ec]2 |[M:3/4] d2 d2 d2 | d2 c2 d2 | %20
 e2 d2 c2 | d4 d2 | [Ge]2 [Ec]2 [FA]2 | [EG]2 [Gc]2 [Ad]2 | e2 c2 d2 |[M:2/4] [Ec]4 |] %26
V:2
 z2 z2 [C,C]2 | [C,G,]2 [C,G,]2 [C,G,]2 | [C,C]2 [D,G,D]2 [E,G,C]2 | [F,A,F]2 [F,A,F]2 [F,CF]2 | %4
 [C,C]4 [C,C]2 | [F,CF]2 [F,CF]2 [F,CF]2 | [F,A,]2 [F,CE]2 [F,CF]2 | [C,C]2 [C,C]2 [E,G,C]2 | %8
 [G,B,]4 [G,B,]2 | [C,G,C]2 [C,G,C]2 [C,G,]2 | [C,C]2 [C,C]2 [C,G,C]2 | [F,C]2 [F,CF]2 [F,CF]2 | %12
 [C,C]4[K:treble] [G,B,G]2 | [CG]2 [G,B,G]2[K:bass] [E,C]2 | [F,CF]2 [F,A,F]2 [F,CF]2 | %15
 [G,CE]2 [G,E]2 [G,D]2 |[M:2/4] [C,G,]4 |[M:1/4] [C,G,]2 | %18
[M:3/4][K:treble] [G,B,G]2 [G,B,G]2 [G,B,G]2 | [G,B,G]2 [G,A,G]2 [G,B,G]2 | [CG]2 [B,DG]2 [A,^F]2 | %21
 [G,B,G]4 [G,B,G]2 | [C,C]2 [C,C]2 [C,C]2 | [C,C]2 [E,C]2 [F,C]2 | [G,CG]2 [G,E]2 [G,B,F]2 | %25
[M:2/4][K:bass] [C,C]4 |] %26

